icons/marketplace-kaufland.svg

<svg width="36" height="36" viewBox="0 0 36 36" fill="none" xmlns="http://www.w3.org/2000/svg">
    <rect x="0.5" y="0.5" width="35" height="35" rx="7.5" fill="white"/>
    <rect x="0.5" y="0.5" width="35" height="35" rx="7.5" stroke="#E9EAEC"/>
    <path d="M11.0195 6.27649V12.8084H17.5515V6.27649H11.0195ZM18.7044 6.27649V12.8084L25.2364 6.27649H18.7044ZM11.0195 13.9612V20.4931H17.5515V13.9612H11.0195ZM18.7044 13.9612V20.4931H25.2364L18.7044 13.9612Z"
          fill="#E10915"/>
    <path d="M17.4605 24.2237C17.4244 24.2238 17.388 24.2252 17.3518 24.2281C17.0135 24.2038 16.6817 24.3298 16.4445 24.5726C16.2077 24.8154 16.0896 25.1504 16.1223 25.4881V25.8726H15.665V26.6177H16.1223V28.9465H17.0444V26.5909H18.0934V25.8495H17.0444V25.5649C17.0444 25.1809 17.2252 24.981 17.5477 24.981L17.5518 24.9772C17.723 24.9729 17.8914 25.0196 18.0358 25.1118L18.1817 24.4202C17.9627 24.2908 17.7136 24.2232 17.4605 24.2237ZM4.48755 24.293V28.9465H5.53283V26.8522L7.05811 28.9465H8.26837L6.47415 26.5679L8.2416 24.293H7.05811L5.53283 26.4257V24.293H4.48755ZM18.616 24.293V28.9462H19.5383V24.293H18.616ZM30.1048 24.293V26.2144C29.8486 25.9455 29.4929 25.7938 29.1211 25.7957C28.2489 25.7957 27.6571 26.5141 27.6571 27.4249C27.6263 27.8346 27.7661 28.2386 28.0431 28.5422C28.3202 28.8453 28.7103 29.0208 29.1211 29.027C29.4931 29.0317 29.8502 28.8799 30.1048 28.6082V28.9465H31V24.293H30.1048ZM26.0282 25.7757C26.0077 25.7754 25.9872 25.7756 25.9666 25.7764V25.7801C25.5909 25.7777 25.2323 25.9373 24.9829 26.2184V25.8339H24.0837V28.9465H24.9867V26.9138C25.1355 26.6925 25.3848 26.56 25.6512 26.5602C25.8221 26.5505 25.9884 26.6177 26.1042 26.7435C26.2203 26.8692 26.2742 27.0402 26.2509 27.2095V28.9465H27.1576V27.0252C27.1852 26.6965 27.0707 26.3715 26.8432 26.1327C26.6295 25.9089 26.3357 25.7809 26.0282 25.7757ZM9.6019 25.7878C8.73721 25.7878 8.14174 26.5063 8.14174 27.4171C8.11091 27.8261 8.24993 28.2299 8.52636 28.5331C8.80248 28.836 9.19167 29.0121 9.6019 29.0193C9.95676 29.0239 10.2989 28.8854 10.5507 28.6352V28.9465H11.45V25.8495H10.5507V26.1723C10.2964 25.9258 9.95612 25.7878 9.6019 25.7878ZM21.5747 25.7878C20.71 25.7878 20.1145 26.5063 20.1145 27.4171C20.0837 27.8261 20.2228 28.2299 20.4992 28.5331C20.7757 28.836 21.1644 29.0121 21.5747 29.0193C21.9298 29.0239 22.2717 28.8854 22.5238 28.6352V28.9465H23.4228V25.8495H22.5238V26.1723C22.2692 25.9258 21.929 25.7878 21.5747 25.7878ZM12.0878 25.8495V27.7708C12.0601 28.0995 12.1746 28.4244 12.4022 28.6632C12.63 28.9019 12.9491 29.0314 13.2791 29.0193C13.6598 29.0168 14.0211 28.8503 14.2701 28.5621V28.9465H15.1695V25.8495H14.2701V27.8819C14.117 28.0985 13.8706 28.2296 13.6056 28.2355C13.4351 28.2435 13.2695 28.176 13.1534 28.0508C13.037 27.9257 12.9818 27.7558 13.0023 27.5862V25.8495H12.0878ZM9.89389 26.5409C10.1448 26.539 10.3842 26.6454 10.5507 26.8331V27.9512C10.3845 28.1393 10.1448 28.2458 9.89389 28.2433C9.44596 28.2131 9.098 27.8412 9.098 27.3923C9.098 26.9434 9.44596 26.5711 9.89389 26.5409ZM21.8666 26.5409C22.1176 26.539 22.3574 26.6454 22.5238 26.8331V27.9512C22.3576 28.1393 22.1176 28.2458 21.8666 28.2433C21.4187 28.2131 21.0708 27.8412 21.0708 27.3923C21.0708 26.9434 21.4187 26.5711 21.8666 26.5409ZM29.4131 26.5449C29.6826 26.5411 29.9382 26.6635 30.1048 26.8752V27.9167C29.9382 28.1284 29.6826 28.2507 29.4131 28.2469C28.9651 28.2168 28.6171 27.8449 28.6171 27.396C28.6171 26.9471 28.9651 26.5751 29.4131 26.5449Z"
          fill="#E10915"/>
</svg>

<svg xmlns="http://www.w3.org/2000/svg" fill="none" viewBox="0 0 36 36"><rect width="35" height="35" x=".5" y=".5" fill="currentColor" rx="7.5"/><rect width="35" height="35" x=".5" y=".5" stroke="currentColor" rx="7.5"/><path fill="currentColor" d="M11.02 6.276v6.532h6.532V6.276zm7.684 0v6.532l6.532-6.532zm-7.684 7.685v6.532h6.532v-6.532zm7.684 0v6.532h6.532zM17.46 24.224q-.054 0-.108.004a1.153 1.153 0 0 0-1.23 1.26v.385h-.457v.745h.457v2.329h.922V26.59h1.05v-.742h-1.05v-.284c0-.384.181-.584.504-.584l.004-.004a.86.86 0 0 1 .484.135l.146-.692a1.4 1.4 0 0 0-.721-.196m-12.972.069v4.654h1.045v-2.095l1.525 2.095h1.21l-1.794-2.38 1.768-2.274H7.058l-1.525 2.133v-2.133zm14.128 0v4.653h.922v-4.653zm11.489 0v1.921a1.35 1.35 0 0 0-.984-.418c-.872 0-1.464.718-1.464 1.629a1.49 1.49 0 0 0 1.464 1.602c.372.005.73-.147.984-.419v.338H31v-4.653zm-4.077 1.483h-.061v.004a1.3 1.3 0 0 0-.984.438v-.384h-.9v3.113h.904v-2.033a.8.8 0 0 1 .664-.354.572.572 0 0 1 .6.65v1.736h.907v-1.92a1.154 1.154 0 0 0-1.13-1.25m-16.426.012c-.865 0-1.46.718-1.46 1.63a1.49 1.49 0 0 0 1.46 1.601c.355.005.697-.134.949-.384v.311h.899V25.85h-.9v.323a1.36 1.36 0 0 0-.948-.384m11.973 0c-.865 0-1.46.718-1.46 1.63a1.49 1.49 0 0 0 1.46 1.601c.355.005.697-.134.949-.384v.311h.899V25.85h-.9v.323a1.36 1.36 0 0 0-.948-.384m-9.487.061v1.922a1.153 1.153 0 0 0 1.191 1.248c.38-.002.742-.169.991-.457v.384h.9V25.85h-.9v2.033a.84.84 0 0 1-.664.353.58.58 0 0 1-.604-.649V25.85zm-2.194.692c.25-.002.49.104.657.292v1.118a.87.87 0 0 1-.657.292.853.853 0 0 1 0-1.702m11.973 0a.87.87 0 0 1 .657.292v1.118a.87.87 0 0 1-.657.292.853.853 0 0 1 0-1.702m7.546.004a.87.87 0 0 1 .692.33v1.042a.87.87 0 0 1-.692.33.853.853 0 0 1 0-1.702"/></svg>
